!!!COM:	Bach, Johann Sebastian
!!!CDT:	1685/02/21/-1750/07/28/
!!!OTL@@DE:	Von Gott will ich nicht lassen
!!!SCT:	BWV 419
!!!PC#:	114
!!!AGN:	chorale
**kern	**kern	**kern	**kern
*ICvox	*ICvox	*ICvox	*ICvox
*Ibass	*Itenor	*Ialto	*Isoprn
*I"Bass	*I"Tenor	*I"Alto	*I"Soprano
*>[A,A,B]	*>[A,A,B]	*>[A,A,B]	*>[A,A,B]
*>norep[A,B]	*>norep[A,B]	*>norep[A,B]	*>norep[A,B]
*>A	*>A	*>A	*>A
*clefF4	*clefGv2	*clefG2	*clefG2
*k[]	*k[]	*k[]	*k[]
*a:	*a:	*a:	*a:
*M4/4	*M4/4	*M4/4	*M4/4
*met(c)	*met(c)	*met(c)	*met(c)
*MM100	*MM100	*MM100	*MM100
8AL	4c	4e	4a
8GJ	.	.	.
=1	=1	=1	=1
4F	4c	4f	4a
8EL	4d	4f	4b
8DJ	.	.	.
4E	4G	4g	4cc
4F#	4d	4a	4dd
=2	=2	=2	=2
4G	8dL	4g	4.b
.	8eJ	.	.
4D#	4f#	4f#	.
.	.	.	8a
4E;	4B;	4e;	4g;
8EL	4B	4e	4g
8DJ	.	.	.
=3	=3	=3	=3
4C	4A	4e	4a
8FnXL	4A	8dL	4a
8EJ	.	8eJ	.
4D	4A	4fnX	4b
4E	4G#	8eL	4b
.	.	[8dJ	.
=4	=4	=4	=4
2.A;	2.A;	8dL]	2.e;
.	.	16cL	.
.	.	16BJJ	.
.	.	2c;	.
=:|!	=:|!	=:|!	=:|!
*>B	*>B	*>B	*>B
4AA	8GL	8eL	4ee
.	8AJ	8f#J	.
=5	=5	=5	=5
8BBL	4B	4g#	4dd
8BJ	.	.	.
4A	8eL	8aL	4cc
.	8cJ	8gJ	.
4G#	8dL	4fnX	4b
.	8BJ	.	.
4A	4c	8eL	4a
.	.	8f#J	.
=6	=6	=6	=6
2.E;	2.B;	2.g#;	2.b;
4E	4e	4g#	4b
=7	=7	=7	=7
4A	4e	4a	4cc
8GnXL	4f	4b	4dd
8FJ	.	.	.
4c	4gnX	8ccL	4ee
.	.	8bJ	.
4E	8cL	8aL	4ee
.	8BJ	8gnXJ	.
=8	=8	=8	=8
4F#	4A	8aL	2dd
.	.	8gJ	.
8EL	4d	4f#	.
8DJ	.	.	.
4G;	4d;	4g;	4b;
4G#	4B	4f	4dd
=9	=9	=9	=9
4A	8AL	8e	4cc
.	8eJ	4a	.
4E	4e	.	4b
.	.	8g	.
4.F	8eL	8gL	4a
.	16dL	16fL	.
.	16c#JJ	16eJJ	.
.	8dL	4f	4a
8E	8cJ	.	.
=10	=10	=10	=10
8D#L	8BL	8f#L	4.b
8BBJ	8AJ	8d#J	.
8C#L	8GL	8eL	.
8D#XJ	8F#J	8f#J	8a
4E;	4E;	4B;	4g;
4D	4F	4B	4f
=11	=11	=11	=11
4C	4G	4c	4e
4F	4A	8cL	8aL
.	.	8dnXJ	8bJ
8EL	4A	4e	4cc
8DJ	.	.	.
4E	4G#	8eL	4b
.	.	8dJ	.
=12	=12	=12	=12
2.AA;	2.A;	2.c;	2.a;
==	==	==	==
*-	*-	*-	*-
!!!hum2abc: -Q ''
!!!title: @{PC#}. @{OTL@@DE}
!!!YOR1: 371 vierstimmige Choralges&auml;nge von Johann Sebastian Bach, 
!!!YOR2: 4th ed. by Alfred D&ouml;rffel (Leipzig: Breitkopf und H&auml;rtel, 
!!!YOR2: c.1875). 178 pp. Plate "V.A.10".  reprint: J.S. Bach, 371 Four-Part 
!!!YOR4: Chorales (New York: Associated Music Publishers, Inc., c.1940).
!!!SMS: B&H, 4th ed, Alfred D&ouml;rffel, c.1875, plate V.A.10
!!!EED:  Craig Stuart Sapp
!!!EEV:  2009/05/22
